Adwaita++-Light/panel/16/mintupdate-error.svg

<svg height="16" width="16" xmlns="http://www.w3.org/2000/svg">
  <path d="m8 .99996c-1.8412 1.72364-4.9418 2.99184-6 3.25004 0 4.6664 2.25 9.972 6 10.75 3.75-.778 6-6.0836 6-10.75-1.059-.2582-4.1589-1.5264-6-3.25004zm-2.4746 3.81844 2.4746 2.4746 2.475-2.4746.707.707-2.475 2.4746 2.475 2.475-.707.707-2.475-2.475-2.4746 2.475-.707-.707 2.4746-2.475-2.4746-2.4746z" fill="#4285f4" fill-rule="evenodd"/>
</svg>

<svg xmlns="http://www.w3.org/2000/svg" width="16" height="16" version="1.1">
 <defs>
  <style id="current-color-scheme" type="text/css">
   .ColorScheme-Text { color:#444444; } .ColorScheme-Highlight { color:#4285f4; }
  </style>
 </defs>
 <path style="fill:currentColor;fill-rule:evenodd" class="ColorScheme-Highlight" d="M 8,0.99996 C 6.1588,2.7236 3.0582,3.9918 2,4.25 2,8.9164 4.25,14.222 8,15 11.75,14.222 14,8.9164 14,4.25 12.941,3.9918 9.8411,2.7236 8,0.99996 Z M 5.5254,4.8184 8,7.293 10.475,4.8184 11.182,5.5254 8.707,8 11.182,10.475 10.475,11.182 8,8.707 5.5254,11.182 4.8184,10.475 7.293,8 4.8184,5.5254 Z"/>
</svg>
